Suru++-Ubuntu/apps/symbolic/resharper-symbolic.svg

<svg width="16" height="16" version="1.1" xmlns="http://www.w3.org/2000/svg">
 <g transform="translate(0,-1036.3622)">
  <path transform="translate(0,1036.3622)" d="m0.50390625 0.50390625-0.00195313 7.4863282c-0.00199895 4.1156556-0.00104323 7.4845526 0.00195313 7.4980466 0.00427 0.011 1.5092902 0.011719 7.5 0.011719h7.4960938v-7.4980469-7.4980468h-7.4980469-7.4980468zm0.99218755 2.5351562h2.1328124c0.7979206 0 1.3924298 0.1664667 1.7851563 0.5 0.3927265 0.3334667 0.5898439 0.8384521 0.5898437 1.5117187 0 0.4394667-0.1028798 0.8038835-0.3085937 1.09375-0.202597 0.2898667-0.4990622 0.4893625-0.8886719 0.6015626 0.202597 0.0685999 0.3997142 0.2150531 0.5898438 0.4394531 0.1932464 0.2244 0.3868318 0.5330479 0.5800781 0.9257812l0.9570313 1.9082029h-1.0136719l-0.8925781-1.7910154c-0.2306489-0.4675333-0.4556468-0.7769541-0.6738282-0.9296875-0.2150645-0.1527333-0.5087872-0.2285156-0.8828125-0.2285156h-1.0292969v2.9492185h-0.9453124v-6.9804685zm9.1542972 0.1074219h0.757812l-0.486328 1.9414062h1.365234l0.492188-1.9414062h0.748047l-0.482422 1.9414062h1.458984v0.71875h-1.640625l-0.384765 1.5625h1.488281v0.7148438h-1.669922l-0.486328 1.9355466h-0.748047l0.482422-1.9355466h-1.371094l-0.4804686 1.9355466h-0.7539063l0.4863281-1.9355466h-1.4726562v-0.7148438h1.6464844l0.3925781-1.5625h-1.5058594v-0.71875h1.6874999l0.476563-1.9414062zm-8.2089848 0.6699218v2.4765626h1.1875c0.4550641 0 0.798648-0.1037 1.0292969-0.3125 0.2337658-0.2119334 0.3496094-0.5213542 0.3496094-0.9296876 0-0.4083333-0.1158436-0.7162082-0.3496094-0.921875-0.2306489-0.2088666-0.5742328-0.3124999-1.0292969-0.3125h-1.1875zm8.3085938 1.9902344-0.392578 1.5625h1.36914l0.382813-1.5625h-1.359375zm-8.7441406 6.6953124h2.8125 2.8125v0.466797 0.466797h-2.8125-2.8125v-0.466797-0.466797z" style="fill:#808080"/>
 </g>
</svg>

<svg xmlns="http://www.w3.org/2000/svg" width="16" height="16" version="1.1">
 <g transform="translate(0,-1036.3622)">
  <path style="fill:#808080" d="M 0.50390625 0.50390625 L 0.50195312 7.9902344 C 0.49995417 12.10589 0.50090989 15.474787 0.50390625 15.488281 C 0.50817625 15.499281 2.0131964 15.5 8.0039062 15.5 L 15.5 15.5 L 15.5 8.0019531 L 15.5 0.50390625 L 8.0019531 0.50390625 L 0.50390625 0.50390625 z M 1.4960938 3.0390625 L 3.6289062 3.0390625 C 4.4268268 3.0390625 5.021336 3.2055292 5.4140625 3.5390625 C 5.806789 3.8725292 6.0039064 4.3775146 6.0039062 5.0507812 C 6.0039062 5.4902479 5.9010264 5.8546647 5.6953125 6.1445312 C 5.4927155 6.4343979 5.1962503 6.6338937 4.8066406 6.7460938 C 5.0092376 6.8146937 5.2063548 6.9611469 5.3964844 7.1855469 C 5.5897308 7.4099469 5.7833162 7.7185948 5.9765625 8.1113281 L 6.9335938 10.019531 L 5.9199219 10.019531 L 5.0273438 8.2285156 C 4.7966949 7.7609823 4.571697 7.4515615 4.3535156 7.2988281 C 4.1384511 7.1460948 3.8447284 7.0703125 3.4707031 7.0703125 L 2.4414062 7.0703125 L 2.4414062 10.019531 L 1.4960938 10.019531 L 1.4960938 3.0390625 z M 10.650391 3.1464844 L 11.408203 3.1464844 L 10.921875 5.0878906 L 12.287109 5.0878906 L 12.779297 3.1464844 L 13.527344 3.1464844 L 13.044922 5.0878906 L 14.503906 5.0878906 L 14.503906 5.8066406 L 12.863281 5.8066406 L 12.478516 7.3691406 L 13.966797 7.3691406 L 13.966797 8.0839844 L 12.296875 8.0839844 L 11.810547 10.019531 L 11.0625 10.019531 L 11.544922 8.0839844 L 10.173828 8.0839844 L 9.6933594 10.019531 L 8.9394531 10.019531 L 9.4257812 8.0839844 L 7.953125 8.0839844 L 7.953125 7.3691406 L 9.5996094 7.3691406 L 9.9921875 5.8066406 L 8.4863281 5.8066406 L 8.4863281 5.0878906 L 10.173828 5.0878906 L 10.650391 3.1464844 z M 2.4414062 3.8164062 L 2.4414062 6.2929688 L 3.6289062 6.2929688 C 4.0839703 6.2929688 4.4275542 6.1892688 4.6582031 5.9804688 C 4.8919689 5.7685354 5.0078125 5.4591146 5.0078125 5.0507812 C 5.0078125 4.6424479 4.8919689 4.334573 4.6582031 4.1289062 C 4.4275542 3.9200396 4.0839703 3.8164063 3.6289062 3.8164062 L 2.4414062 3.8164062 z M 10.75 5.8066406 L 10.357422 7.3691406 L 11.726562 7.3691406 L 12.109375 5.8066406 L 10.75 5.8066406 z M 2.0058594 12.501953 L 4.8183594 12.501953 L 7.6308594 12.501953 L 7.6308594 12.96875 L 7.6308594 13.435547 L 4.8183594 13.435547 L 2.0058594 13.435547 L 2.0058594 12.96875 L 2.0058594 12.501953 z" transform="translate(0,1036.3622)"/>
 </g>
</svg>
